public/images/hashed/b560fac25a9286b6b3e5c643e71fd4b9.svg

<svg xmlns="http://www.w3.org/2000/svg" width="80" height="80"><defs><linearGradient id="a" x1="0%" x2="100%" y1="100%" y2="0%"><stop offset="0%" stop-color="#055F4E"/><stop offset="100%" stop-color="#56C0A7"/></linearGradient></defs><g fill="none" fill-rule="evenodd"><path fill="url(#a)" d="M0 0h80v80H0z"/><path fill="#FFF" d="M52 19v5.586l-4.293-4.293-1.414 1.414 6 6a.997.997 0 0 0 1.414 0l6-6-1.414-1.414L54 24.586V19c0-4.841-1.851-7-6-7h-4.995v2H48c2.267 0 4 .368 4 5ZM28 62v-6.586l4.293 4.293 1.414-1.414-6-6a.999.999 0 0 0-1.414 0l-6 6 1.414 1.414L26 55.414V62c0 3.645 2.355 6 6 6h5v-2h-5c-2.505 0-4-1.495-4-4Zm20.601-13.168c.715 1.775 1.694 3.324 2.917 4.614 1.183-1.277 2.107-2.796 2.808-4.614h-5.725Zm3.905-2.002h6.092c.27 0 .49.22.49.491v1.02c0 .271-.22.491-.49.491h-1.754a.718.718 0 0 1-.435.323c-.836 2.268-1.943 4.132-3.374 5.674 1.653 1.267 3.619 2.165 5.857 2.674a.49.49 0 0 1 .237.826 4.609 4.609 0 0 0-.654.916.49.49 0 0 1-.557.247c-2.539-.653-4.658-1.703-6.466-3.204-1.703 1.351-3.792 2.394-6.37 3.183a.491.491 0 0 1-.598-.284c-.08-.198-.343-.591-.528-.819a.492.492 0 0 1 .246-.781c2.322-.666 4.208-1.562 5.747-2.733-1.48-1.633-2.67-3.656-3.541-6.022h-1.931a.491.491 0 0 1-.492-.491v-1.02c0-.271.22-.491.492-.491h5.982v-2.212c0-.137.057-.266.155-.359a.519.519 0 0 1 .368-.131l1.374.092a.49.49 0 0 1 .455.559.698.698 0 0 1-.305.481v1.57ZM30.438 35.242l-2.583-7.501-2.558 7.501h5.141Zm-1.324-9.531L34.762 41h-2.339l-1.411-4.059h-6.288L23.355 41h-2.316l5.649-15.289h2.426ZM63 41h-8a1 1 0 0 1-1-1v-7H41v33h22V41Zm-7-2h5.37L56 34.227V39Zm9 1v27a1 1 0 0 1-1 1H40a1 1 0 0 1-1-1V32a1 1 0 0 1 1-1h15c.24 0 .478.087.664.252l9 8c.218.194.336.468.336.748ZM33 21h4.773L33 15.63V21ZM18 37h-2V13.003a1 1 0 0 1 1-1L32 12a1 1 0 0 1 .747.335l8 9c.166.187.253.425.253.665v6h-2v-5h-7a1 1 0 0 1-1-1v-8l-13 .003V37Zm0 11h19v2H17a1 1 0 0 1-1-1v-7h2v6Z"/></g></svg>

<?xml version="1.0" encoding="UTF-8"?>
<svg width="80px" height="80px" viewBox="0 0 80 80" version="1.1" xmlns="http://www.w3.org/2000/svg" xmlns:xlink="http://www.w3.org/1999/xlink">
    <!-- Generator: Sketch 64 (93537) - https://sketch.com -->
    <title>Icon-Architecture/64/Arch_Amazon-Translate_64</title>
    <desc>Created with Sketch.</desc>
    <defs>
        <linearGradient x1="0%" y1="100%" x2="100%" y2="0%" id="linearGradient-1">
            <stop stop-color="#055F4E" offset="0%"></stop>
            <stop stop-color="#56C0A7" offset="100%"></stop>
        </linearGradient>
    </defs>
    <g id="Icon-Architecture/64/Arch_Amazon-Translate_64" stroke="none" stroke-width="1" fill="none" fill-rule="evenodd">
        <g id="Icon-Architecture-BG/64/Machine-Learning" fill="url(#linearGradient-1)">
            <rect id="Rectangle" x="0" y="0" width="80" height="80"></rect>
        </g>
        <path d="M52,19 L52,24.586 L47.707,20.293 L46.293,21.707 L52.293,27.707 C52.488,27.902 52.744,28 53,28 C53.256,28 53.512,27.902 53.707,27.707 L59.707,21.707 L58.293,20.293 L54,24.586 L54,19 C54,14.159 52.149,12 48,12 L43.005,12 L43.005,14 L48,14 C50.267,14 52,14.368 52,19 L52,19 Z M28,62 L28,55.414 L32.293,59.707 L33.707,58.293 L27.707,52.293 C27.316,51.902 26.684,51.902 26.293,52.293 L20.293,58.293 L21.707,59.707 L26,55.414 L26,62 C26,65.645 28.355,68 32,68 L37,68 L37,66 L32,66 C29.495,66 28,64.505 28,62 L28,62 Z M48.601,48.832 C49.316,50.607 50.295,52.156 51.518,53.446 C52.701,52.169 53.625,50.65 54.326,48.832 L48.601,48.832 Z M52.506,46.83 L58.598,46.83 C58.868,46.83 59.088,47.05 59.088,47.321 L59.088,48.341 C59.088,48.612 58.868,48.832 58.598,48.832 L56.844,48.832 C56.768,48.959 56.637,49.089 56.409,49.155 C55.573,51.423 54.466,53.287 53.035,54.829 C54.688,56.096 56.654,56.994 58.892,57.503 C59.064,57.543 59.204,57.674 59.254,57.846 C59.304,58.017 59.256,58.202 59.129,58.329 C58.932,58.526 58.632,58.946 58.475,59.245 C58.389,59.409 58.22,59.508 58.041,59.508 C58,59.508 57.959,59.503 57.918,59.492 C55.379,58.839 53.26,57.789 51.452,56.288 C49.749,57.639 47.66,58.682 45.082,59.471 C44.839,59.545 44.58,59.422 44.484,59.187 C44.404,58.989 44.141,58.596 43.956,58.368 C43.853,58.24 43.819,58.068 43.869,57.911 C43.918,57.754 44.044,57.632 44.202,57.587 C46.524,56.921 48.41,56.025 49.949,54.854 C48.469,53.221 47.279,51.198 46.408,48.832 L44.477,48.832 C44.205,48.832 43.985,48.612 43.985,48.341 L43.985,47.321 C43.985,47.05 44.205,46.83 44.477,46.83 L50.459,46.83 L50.459,44.618 C50.459,44.481 50.516,44.352 50.614,44.259 C50.713,44.167 50.846,44.125 50.982,44.1278502 L52.356,44.22 C52.493,44.229 52.619,44.295 52.705,44.401 C52.791,44.507 52.829,44.644 52.811,44.779 C52.795,44.89 52.734,45.106 52.506,45.26 L52.506,46.83 Z M30.438,35.242 L27.855,27.741 L25.297,35.242 L30.438,35.242 Z M29.114,25.711 L34.762,41 L32.423,41 L31.012,36.941 L24.724,36.941 L23.355,41 L21.039,41 L26.688,25.711 L29.114,25.711 Z M63,41 L55,41 C54.447,41 54,40.552 54,40 L54,33 L41,33 L41,66 L63,66 L63,41 Z M56,39 L61.37,39 L56,34.227 L56,39 Z M65,40 L65,67 C65,67.552 64.553,68 64,68 L40,68 C39.447,68 39,67.552 39,67 L39,32 C39,31.448 39.447,31 40,31 L55,31 C55.24,31 55.478,31.087 55.664,31.252 L64.664,39.252 C64.882,39.446 65,39.72 65,40 L65,40 Z M33,21 L37.773,21 L33,15.63 L33,21 Z M18,37 L16,37 L16,13.003 C16,12.451 16.447,12.003 17,12.003 L32,12 C32.28,12 32.554,12.118 32.747,12.335 L40.747,21.335 C40.913,21.522 41,21.76 41,22 L41,28 L39,28 L39,23 L32,23 C31.447,23 31,22.552 31,22 L31,14 L18,14.003 L18,37 Z M18,48 L37,48 L37,50 L17,50 C16.447,50 16,49.552 16,49 L16,42 L18,42 L18,48 Z" id="Amazon-Translate_Icon_64_Squid" fill="#FFFFFF"></path>
    </g>
</svg>
